X: 20781
T: Johnny Loughran's
R: reel
M: 4/4
K: Cmajor
GEcA GECE|GEcA G2z2|GEcA GAcd|edcA d2cA:|
cdef gage|gage f2ed|cdef gage|agec d2cA:|

